static/icons/bar-chart.svg

<?xml version="1.0" encoding="UTF-8" standalone="no"?>
<!-- Generator: Adobe Illustrator 19.0.0, SVG Export Plug-In . SVG Version: 6.00 Build 0)  -->

<svg
   xmlns:dc="http://purl.org/dc/elements/1.1/"
   xmlns:cc="http://creativecommons.org/ns#"
   xmlns:rdf="http://www.w3.org/1999/02/22-rdf-syntax-ns#"
   xmlns:svg="http://www.w3.org/2000/svg"
   xmlns="http://www.w3.org/2000/svg"
   xmlns:sodipodi="http://sodipodi.sourceforge.net/DTD/sodipodi-0.dtd"
   xmlns:inkscape="http://www.inkscape.org/namespaces/inkscape"
   version="1.1"
   id="Capa_1"
   x="0px"
   y="0px"
   viewBox="0 0 488.2 488.2"
   style="enable-background:new 0 0 488.2 488.2;"
   xml:space="preserve"
   width="512px"
   height="512px"
   inkscape:version="0.91 r"
   sodipodi:docname="bar-chart.svg"><metadata
     id="metadata3492"><rdf:RDF><cc:Work
         rdf:about=""><dc:format>image/svg+xml</dc:format><dc:type
           rdf:resource="http://purl.org/dc/dcmitype/StillImage" /><dc:title></dc:title></cc:Work></rdf:RDF></metadata><defs
     id="defs3490" /><sodipodi:namedview
     pagecolor="#ffffff"
     bordercolor="#666666"
     borderopacity="1"
     objecttolerance="10"
     gridtolerance="10"
     guidetolerance="10"
     inkscape:pageopacity="0"
     inkscape:pageshadow="2"
     inkscape:window-width="636"
     inkscape:window-height="881"
     id="namedview3488"
     showgrid="false"
     inkscape:zoom="0.45713349"
     inkscape:cx="309.51266"
     inkscape:cy="120.59733"
     inkscape:window-x="0"
     inkscape:window-y="18"
     inkscape:window-maximized="0"
     inkscape:current-layer="Capa_1" /><g
     id="g3448"
     transform="matrix(1,0,0,1.045129,0,-11.015967)"><g
       id="g3450"><path
         d="M 12.3,220.9 C 5.5,220.9 0,226.4 0,233.2 l 0,229.7 c 0,6.8 5.5,12.3 12.3,12.3 l 112.3,0 c 6.8,0 12.3,-5.5 12.3,-12.3 l 0,-229.7 c 0,-6.8 -5.5,-12.3 -12.3,-12.3 l -112.3,0 z m 100,229.7 -87.8,0 0,-205.2 87.8,0 c 0,0 0,205.2 0,205.2 z"
         id="path3452"
         inkscape:connector-curvature="0"
         style="fill:#006df0" /><path
         d="m 175.7,25.3 0,437.6 c 0,6.8 5.5,12.3 12.3,12.3 l 112.3,0 c 6.8,0 12.3,-5.5 12.3,-12.3 l 0,-437.6 C 312.6,18.5 307.1,13 300.3,13 l -112.4,0 c -6.7,0.1 -12.2,5.5 -12.2,12.3 z m 24.5,12.3 87.8,0 0,413.1 -87.8,0 0,-413.1 0,0 z"
         id="path3454"
         inkscape:connector-curvature="0"
         style="fill:#006df0" /><path
         d="m 475.9,475.1 c 6.8,0 12.3,-5.5 12.3,-12.3 l 0,-294.7 c 0,-6.8 -5.5,-12.3 -12.3,-12.3 l -112.3,0 c -6.8,0 -12.3,5.5 -12.3,12.3 l 0,294.8 c 0,6.8 5.5,12.3 12.3,12.3 l 112.3,0 0,-0.1 z m -100,-294.7 87.8,0 0,270.3 -87.8,0 0,-270.3 z"
         id="path3456"
         inkscape:connector-curvature="0"
         style="fill:#006df0" /></g></g><g
     id="g3458" /><g
     id="g3460" /><g
     id="g3462" /><g
     id="g3464" /><g
     id="g3466" /><g
     id="g3468" /><g
     id="g3470" /><g
     id="g3472" /><g
     id="g3474" /><g
     id="g3476" /><g
     id="g3478" /><g
     id="g3480" /><g
     id="g3482" /><g
     id="g3484" /><g
     id="g3486" /></svg>

<?xml version="1.0" encoding="iso-8859-1"?>
<!-- Generator: Adobe Illustrator 19.0.0, SVG Export Plug-In . SVG Version: 6.00 Build 0)  -->
<svg xmlns="http://www.w3.org/2000/svg" xmlns:xlink="http://www.w3.org/1999/xlink" version="1.1" id="Capa_1" x="0px" y="0px" viewBox="0 0 488.2 488.2" style="enable-background:new 0 0 488.2 488.2;" xml:space="preserve" width="512px" height="512px">
<g>
	<g>
		<path d="M12.3,220.9c-6.8,0-12.3,5.5-12.3,12.3v229.7c0,6.8,5.5,12.3,12.3,12.3h112.3c6.8,0,12.3-5.5,12.3-12.3V233.2    c0-6.8-5.5-12.3-12.3-12.3H12.3z M112.3,450.6H24.5V245.4h87.8C112.3,245.4,112.3,450.6,112.3,450.6z" fill="#006DF0"/>
		<path d="M175.7,25.3v437.6c0,6.8,5.5,12.3,12.3,12.3h112.3c6.8,0,12.3-5.5,12.3-12.3V25.3c0-6.8-5.5-12.3-12.3-12.3H187.9    C181.2,13.1,175.7,18.5,175.7,25.3z M200.2,37.6H288v413.1h-87.8L200.2,37.6L200.2,37.6z" fill="#006DF0"/>
		<path d="M475.9,475.1c6.8,0,12.3-5.5,12.3-12.3V168.1c0-6.8-5.5-12.3-12.3-12.3H363.6c-6.8,0-12.3,5.5-12.3,12.3v294.8    c0,6.8,5.5,12.3,12.3,12.3h112.3V475.1z M375.9,180.4h87.8v270.3h-87.8V180.4z" fill="#006DF0"/>
	</g>
</g>
<g>
</g>
<g>
</g>
<g>
</g>
<g>
</g>
<g>
</g>
<g>
</g>
<g>
</g>
<g>
</g>
<g>
</g>
<g>
</g>
<g>
</g>
<g>
</g>
<g>
</g>
<g>
</g>
<g>
</g>
</svg>
